X: 2
T: Crow In Sun 
M:4/4
L:1/8
Q:150
R:Slow Air
Z:Frederick Faller
D: Liz Caroll, "Lost in the Loop"
K:F
FG |: A2 cA BA G>F | D2 {D} C2 A,3 F/G/ | A3 c dcBA | AB G2 G2 G>A |BFBc dcd<e | fcfa g2 fe | 
dcfc BAG>F |[1 D2 E2 F2 FG :|[2 D2 E2 F3/2 f |: d<c fc d<c Ac | d<c fa g3 g/a/ | bd g<b ac f<a |
gfed c2 (3cde | dcBA c2 (3FGA | BAG>F D2 C>B, | A,CFA G<B E<G |[1F6 f2:|[2 F8 ||
